icons/mobile/24/svg/reading-list-slash-fill-24.svg

<!-- This Source Code Form is subject to the terms of the Mozilla Public
   - License, v. 2.0. If a copy of the MPL was not distributed with this
   - file, You can obtain one at http://mozilla.org/MPL/2.0/. -->
<svg width="24" height="24" viewBox="0 0 24 24" fill="none" xmlns="http://www.w3.org/2000/svg">
    <path fill-rule="evenodd" clip-rule="evenodd" d="M2.98768 0.750244L23.2497 21.0122L22.0122 22.2497L20.1407 20.3782C19.7036 20.765 19.1301 21 18.5 21H13.982L12.435 21.885C12.3 21.961 12.149 22 12 22C11.851 22 11.7 21.961 11.566 21.885L10.018 21H5.5C4.121 21 3 19.878 3 18.5V5.50005C3 4.86993 3.23508 4.29646 3.62189 3.85933L1.75024 1.98768L2.98768 0.750244ZM12 12.2374L11.0126 11.25H7V13H12V12.2374ZM8.76256 9L7.01256 7.25H7V9H8.76256ZM11 17V15.25H7V17H11Z" fill="black" />
    <path d="M21 5.5V16.642L7.35803 3H10.25C10.402 3 10.552 3.04 10.685 3.115L12 3.867L13.315 3.115C13.448 3.04 13.598 3 13.75 3H18.5C19.879 3 21 4.122 21 5.5Z" fill="black" />
</svg>

<!-- This Source Code Form is subject to the terms of the Mozilla Public
   - License, v. 2.0. If a copy of the MPL was not distributed with this
   - file, You can obtain one at http://mozilla.org/MPL/2.0/. -->
<svg xmlns="http://www.w3.org/2000/svg" width="24" height="24" fill="none" viewBox="0 0 24 24">
    <path fill="#000" fill-rule="evenodd" d="M2.988.75 23.25 21.012l-1.238 1.238-1.871-1.872A2.47 2.47 0 0 1 18.5 21h-4.518l-1.547.885a.884.884 0 0 1-.869 0L10.018 21H5.5A2.503 2.503 0 0 1 3 18.5v-13c0-.63.235-1.204.622-1.64L1.75 1.987zM12 12.237l-.987-.987H7V13h5zM8.763 9l-1.75-1.75H7V9zM11 17v-1.75H7V17z" clip-rule="evenodd" />
    <path fill="#000" d="M21 5.5v11.142L7.358 3h2.892c.152 0 .302.04.435.115L12 3.867l1.315-.752A.9.9 0 0 1 13.75 3h4.75C19.879 3 21 4.122 21 5.5" />
</svg>
